fs/call_forward_24_filled.svg

<svg viewBox="0 0 24 24" fill="none" xmlns="http://www.w3.org/2000/svg" height="1em" width="1em">
  <path d="M9.925 2.0501L10.9622 2.24757C11.9341 2.4326 12.5867 3.34073 12.4873 4.36965L12.2894 6.41724C12.2032 7.30952 11.5695 8.06975 10.7226 8.29676L8.36598 8.92848C7.98254 9.8635 7.80728 10.894 7.8402 12.0201C7.87312 13.1461 8.10913 14.1935 8.54822 15.1623L10.7542 15.5536C11.5904 15.7019 12.2142 16.3919 12.302 17.2657L12.5067 19.3014C12.6088 20.3172 11.9625 21.2911 10.9946 21.5799L9.95737 21.8893C8.92495 22.1973 7.83843 21.9224 7.10509 21.1677C5.3738 19.3859 4.50546 16.4151 4.50002 12.2554C4.49469 8.08969 5.35774 5.02645 7.08923 3.06569C7.81781 2.24064 8.89658 1.85429 9.925 2.0501ZM16.6963 7.14678L16.7804 7.21941L20.7771 11.2171C21.0431 11.4832 21.0674 11.8995 20.8499 12.1931L20.7774 12.2772L16.7808 16.2806C16.4882 16.5738 16.0133 16.5742 15.7202 16.2815C15.4537 16.0155 15.4291 15.5989 15.6467 15.3051L15.7193 15.2209L18.4306 12.5037L12.0006 12.5046C11.6209 12.5046 11.3071 12.2225 11.2574 11.8564L11.2506 11.7546C11.2506 11.3749 11.5327 11.0611 11.8988 11.0115L12.0006 11.0046L18.4416 11.0037L15.7197 8.27993C15.4534 8.01363 15.4293 7.59697 15.6472 7.30338L15.7198 7.21927C15.9565 6.98262 16.312 6.93724 16.5943 7.08312L16.6963 7.14678Z" fill="#212121"/>
</svg>

<svg viewBox="0 0 24 24" fill="none" xmlns="http://www.w3.org/2000/svg" height="1em" width="1em">
  <path d="m9.925 2.05 1.037.198c.972.185 1.625 1.093 1.525 2.122l-.198 2.047c-.086.893-.72 1.653-1.566 1.88l-2.357.631c-.383.935-.559 1.966-.526 3.092a8.107 8.107 0 0 0 .708 3.142l2.206.392c.836.148 1.46.838 1.548 1.712l.205 2.035c.102 1.016-.544 1.99-1.512 2.279l-1.038.31c-1.032.307-2.119.032-2.852-.722-1.731-1.782-2.6-4.753-2.605-8.913-.005-4.165.858-7.229 2.59-9.19.728-.824 1.807-1.21 2.835-1.015Zm6.771 5.097.084.072 3.997 3.998a.75.75 0 0 1 .073.976l-.073.084-3.996 4.004a.75.75 0 0 1-1.134-.976l.072-.084 2.712-2.717H12a.75.75 0 0 1-.744-.648l-.006-.101a.75.75 0 0 1 .648-.744l.102-.006 6.44-.001-2.72-2.724a.75.75 0 0 1-.073-.977l.073-.084a.75.75 0 0 1 .874-.136l.102.064Z" fill="#212121"/>
</svg>
